X: 289
T: Xiao ganhui
L: 1/8
M: 2/4
K: F
z A c f [I:setbarnb 1]| 
d> c A/ c/ G- | 
G A A f | 
A> G F F | 
zc2c | 
c F G c | 
F A G/ A/ G/ F/ | 
C4 | 
G Gc2 | 
B Bc2 | 
F> A A A | 
G A c c | 
z f B A | 
G> A c F | 
d c B3/ A/ | 
G FC2 |]

@@@ Tune index: 9163
